X: 36293
T: Seamus Egan's
R: reel
M: 4/4
K: Gmajor
GFEG BEGB|EGBE cEBF|GFEG BG~G2|AF~F2 DFAF|
GFEG BEGB|EGBE cEBF|~G3A AGBG|~A3B AGFD:|
|:~G3A AGBA|GA (3Bcd ~g3B|~G3A AGBG|~A3B AGFD|
~G3A AGBA|GA (3Bcd efgb|afge dedB|AGFG ~A3F:|

